src/icons/icons_set_01/054-bike.svg

<svg height="50" viewBox="0 0 50 50" width="50" xmlns="http://www.w3.org/2000/svg"><path d="m8.5 39v1c-4.68751202 0-8.5-3.812488-8.5-8.5s3.81248798-8.5 8.5-8.5c4.687512 0 8.5 3.812488 8.5 8.5s-3.812488 8.5-8.5 8.5zm0 0v-1c3.5829425 0 6.5-2.9170575 6.5-6.5s-2.9170575-6.5-6.5-6.5c-3.58294252 0-6.5 2.9170575-6.5 6.5s2.91705748 6.5 6.5 6.5zm24 0v1c-4.687512 0-8.5-3.812488-8.5-8.5s3.812488-8.5 8.5-8.5 8.5 3.812488 8.5 8.5-3.812488 8.5-8.5 8.5zm0 0v-1c3.5829425 0 6.5-2.9170575 6.5-6.5s-2.9170575-6.5-6.5-6.5-6.5 2.9170575-6.5 6.5 2.9170575 6.5 6.5 6.5zm1.354121-18.5185771c.0334515.5512708-.3863239 1.0252818-.9375947 1.0587333-.5512707.0334515-1.0252818-.386324-1.0587333-.9375947-.2367264-3.9011811-1.2395477-5.6025615-2.857793-5.6025615-.5522847 0-1-.4477153-1-1s.4477153-1 1-1c2.9937339 0 4.5615505 2.6599477 4.854121 7.4814229zm-14.954001-20.4814229c1.905 0 3.45 1.53671642 3.45 3.43283582s-1.545 3.43283582-3.45 3.43283582c-1.9056 0-3.45-1.53671642-3.45-3.43283582s1.5444-3.43283582 3.45-3.43283582zm-10.61261003 17.8586131c.28285798-.3707154.7129904-.958024 1.28786956-1.7587255 1.15691827-1.6113755 2.89486927-4.0796495 5.21278167-7.40335633l.6087214-.87285945 10.0804429 8.00452528-1.2437135 1.566262-8.4139547-6.6812255c-2.020636 2.8935481-3.5602485 5.0775425-4.6196462 6.5530897-.2230003.3105986-.424908.5900687-.6058628.8385872 5.4542308.8168544 9.2605974 5.1738138 11.3702051 12.8619172l-1.9287068.5292352c-2.1265245-7.7497537-5.8757528-11.4984885-11.31455046-11.5319694-.33131657.0162923-.36725093-.0094387-.8281516-.3394692-.24163173-.4253003-.24163173-.4253003-.2454836-.6607571v-1h.55918481c.02525761-.0326237.05223581-.0677336.08086422-.1052541z" transform="translate(4 5)"/></svg>

<?xml version="1.0" encoding="UTF-8"?>
<svg width="50px" height="50px" viewBox="0 0 50 50" version="1.1" xmlns="http://www.w3.org/2000/svg" xmlns:xlink="http://www.w3.org/1999/xlink">
    <!-- Generator: Sketch 52.6 (67491) - http://www.bohemiancoding.com/sketch -->
    <title>054-bike</title>
    <desc>Created with Sketch.</desc>
    <g id="054-bike" stroke="none" stroke-width="1" fill="none" fill-rule="evenodd">
        <g id="Group-11" transform="translate(4.000000, 5.000000)" fill="#000000" fill-rule="nonzero">
            <path d="M8.5,39 L8.5,40 C3.81248798,40 0,36.187512 0,31.5 C0,26.812488 3.81248798,23 8.5,23 C13.187512,23 17,26.812488 17,31.5 C17,36.187512 13.187512,40 8.5,40 L8.5,39 Z M8.5,39 L8.5,38 C12.0829425,38 15,35.0829425 15,31.5 C15,27.9170575 12.0829425,25 8.5,25 C4.91705748,25 2,27.9170575 2,31.5 C2,35.0829425 4.91705748,38 8.5,38 L8.5,39 Z M32.5,39 L32.5,40 C27.812488,40 24,36.187512 24,31.5 C24,26.812488 27.812488,23 32.5,23 C37.187512,23 41,26.812488 41,31.5 C41,36.187512 37.187512,40 32.5,40 L32.5,39 Z M32.5,39 L32.5,38 C36.0829425,38 39,35.0829425 39,31.5 C39,27.9170575 36.0829425,25 32.5,25 C28.9170575,25 26,27.9170575 26,31.5 C26,35.0829425 28.9170575,38 32.5,38 L32.5,39 Z M33.854121,20.4814229 C33.8875725,21.0326937 33.4677971,21.5067047 32.9165263,21.5401562 C32.3652556,21.5736077 31.8912445,21.1538322 31.857793,20.6025615 C31.6210666,16.7013804 30.6182453,15 29,15 C28.4477153,15 28,14.5522847 28,14 C28,13.4477153 28.4477153,13 29,13 C31.9937339,13 33.5615505,15.6599477 33.854121,20.4814229 Z M18.90012,2.5313085e-14 C20.80512,2.5313085e-14 22.35012,1.53671642 22.35012,3.43283582 C22.35012,5.32895522 20.80512,6.86567164 18.90012,6.86567164 C16.99452,6.86567164 15.45012,5.32895522 15.45012,3.43283582 C15.45012,1.53671642 16.99452,2.5313085e-14 18.90012,2.5313085e-14 Z M8.28750997,17.8586131 C8.57036795,17.4878977 9.00050037,16.9005891 9.57537953,16.0998876 C10.7322978,14.4885121 12.4702488,12.0202381 14.7881612,8.69653127 L15.3968826,7.82367182 L25.4773255,15.8281971 L24.233612,17.3944591 L15.8196573,10.7132336 C13.7990213,13.6067817 12.2594088,15.7907761 11.2000111,17.2663233 C10.9770108,17.5769219 10.7751031,17.856392 10.5941483,18.1049105 C16.0483791,18.9217649 19.8547457,23.2787243 21.9643534,30.9668277 L20.0356466,31.4960629 C17.9091221,23.7463092 14.1598938,19.9975744 8.72109614,19.9640935 C8.38977957,19.9803858 8.35384521,19.9546548 7.89294454,19.6246243 C7.65131281,19.199324 7.65131281,19.199324 7.64746094,18.9638672 L7.64746094,17.9638672 L8.20664575,17.9638672 C8.23190336,17.9312435 8.25888156,17.8961336 8.28750997,17.8586131 Z" id="Combined-Shape"></path>
        </g>
    </g>
</svg>
